X: 1162
T: THE ALPINE MAID
B: Oliver Ditson "The Boston Collection of Instrumental Music" 1910 p.116 #2
F: http://conquest.imslp.info/files/imglnks/usimg/8/8f/IMSLP175643-PMLP309456-bostoncollection00bost_bw.pdf
%: 2012 John Chambers <jc:trillian.mit.edu>
N: The repeat pattern and rthym for phrase boundaries are confusing.
M: 6/8
L: 1/8
K: D
A |\
a3 f3 | d2f Adf | e3 eee | e3 AAA |\
a3 a3 | f2d eaA | d3 ddd | d2z |]
FBd |\
f3 f2c | d3 dcB | f2f FFF | F3 FBd |\
f3 f2c | d3 dcB | f2z f2z | f3 "^da Capo"Adf ]
A |\
ABA A2a | f3 dcd | efe A2a | f3 dFG |\
ABA A2a | f3 dcd | efe A2a | d3- d2 |]
%%begintext align
First four lead to right, chassez out, form lines across.
All right and left across, all chassez across.
All forward and back, swing to place.
Ladies' grand chain.
%%endtext

%%sep 1 1 500
%%sep 1 1 500
